www/assets/icons/box_outline.svg

<svg width="24" height="24" viewBox="0 0 24 24" xmlns="http://www.w3.org/2000/svg" fill='currentColor'><mask id="mask0_32484_483" style="mask-type:alpha" maskUnits="userSpaceOnUse" x="0" y="0" width="24" height="24"><rect width="24" height="24"/></mask><g mask="url(#mask0_32484_483)"><path d="M5 8V19H19V8H16V16L12 14L8 16V8H5ZM5 21C4.45 21 3.97917 20.8042 3.5875 20.4125C3.19583 20.0208 3 19.55 3 19V6.525C3 6.29167 3.0375 6.06667 3.1125 5.85C3.1875 5.63333 3.3 5.43333 3.45 5.25L4.7 3.725C4.88333 3.49167 5.1125 3.3125 5.3875 3.1875C5.6625 3.0625 5.95 3 6.25 3H17.75C18.05 3 18.3375 3.0625 18.6125 3.1875C18.8875 3.3125 19.1167 3.49167 19.3 3.725L20.55 5.25C20.7 5.43333 20.8125 5.63333 20.8875 5.85C20.9625 6.06667 21 6.29167 21 6.525V19C21 19.55 20.8042 20.0208 20.4125 20.4125C20.0208 20.8042 19.55 21 19 21H5ZM5.4 6H18.6L17.75 5H6.25L5.4 6ZM10 8V12.75L12 11.75L14 12.75V8H10Z"/></g></svg>

<svg xmlns="http://www.w3.org/2000/svg" width="24" height="24" viewBox="0 0 24 24" fill='currentColor'><mask id="a" width="24" height="24" x="0" y="0" maskUnits="userSpaceOnUse" style="mask-type:alpha"><path d="M0 0h24v24H0z"/></mask><g mask="url(#a)"><path d="M5 8v11h14V8h-3v8l-4-2-4 2V8zm0 13q-.824 0-1.412-.587A1.93 1.93 0 0 1 3 19V6.525q0-.35.112-.675.113-.325.338-.6L4.7 3.725q.274-.35.688-.538Q5.8 3 6.25 3h11.5q.45 0 .863.188.412.187.687.537l1.25 1.525q.225.274.337.6t.113.675V19q0 .824-.587 1.413A1.93 1.93 0 0 1 19 21zm.4-15h13.2l-.85-1H6.25zM10 8v4.75l2-1 2 1V8z"/></g></svg>
